dist/svg/resize-nesw.svg

<!-- Generated by Trend Micro Style Portal -->
<svg version="1.1" xmlns="http://www.w3.org/2000/svg" width="16" height="16" viewBox="0 0 16 16">
  <title>resize-nesw</title>
  <path fill="rgb(34,34,34)" d="M12.7 4.7l-8 8 2.3 2.3h-6v-6l2.3 2.3 8-8-2.3-2.3h6v6l-2.3-2.3z"></path>
</svg>

<svg width="16" height="16" viewBox="0 0 16 16" fill="rgb(34, 34, 34)" xmlns="http://www.w3.org/2000/svg"><title>resize-NESW</title><path d="M12.7 4.7L4.7 12.7L7 15H1V9L3.3 11.3L11.3 3.3L9 1H15V7L12.7 4.7Z" fill="rgb(34, 34, 34)" fill-opacity="1.00"/></svg>
